html/dist/img/svg/preloader_save.svg

<svg xmlns="http://www.w3.org/2000/svg" width="100%" height="100%" viewBox="0 0 233 250" fill="none">
    <circle r="0" fill-rule="evenodd" clip-rule="evenodd" fill="#E73D6D">
        <animateMotion xmlns="http://www.w3.org/2000/svg" dur="5s" begin="0" repeatCount="indefinite">
            <mpath xmlns:xlink="http://www.w3.org/1999/xlink" xlink:href="#path"/>
        </animateMotion>
        <animate
            attributeName="r"
            begin="0"
            dur="5s"
            repeatCount="indefinite"
            values="0; 15;"
        />
    </circle>
    <circle r="0" fill-rule="evenodd" clip-rule="evenodd" fill="#E73D6D">
        <animateMotion xmlns="http://www.w3.org/2000/svg" dur="5s" begin="0.7" repeatCount="indefinite">
            <mpath xmlns:xlink="http://www.w3.org/1999/xlink" xlink:href="#path"/>
        </animateMotion>
        <animate
            attributeName="r"
            begin="0.7"
            dur="5s"
            repeatCount="indefinite"
            values="0; 15;"
        />
    </circle>
    <circle r="0" fill-rule="evenodd" clip-rule="evenodd" fill="#E73D6D">
        <animateMotion xmlns="http://www.w3.org/2000/svg" dur="5s" begin="1.4" repeatCount="indefinite">
            <mpath xmlns:xlink="http://www.w3.org/1999/xlink" xlink:href="#path"/>
        </animateMotion>
        <animate
            attributeName="r"
            begin="1.4"
            dur="5s"
            repeatCount="indefinite"
            values="0; 15;"
        />
    </circle>
    <circle r="0" fill-rule="evenodd" clip-rule="evenodd" fill="#E73D6D">
        <animateMotion xmlns="http://www.w3.org/2000/svg" dur="5s" begin="2.1" repeatCount="indefinite">
            <mpath xmlns:xlink="http://www.w3.org/1999/xlink" xlink:href="#path"/>
        </animateMotion>
        <animate
            attributeName="r"
            begin="2.1"
            dur="5s"
            repeatCount="indefinite"
            values="0; 15;"
        />
    </circle>
    <circle r="0" fill-rule="evenodd" clip-rule="evenodd" fill="#E73D6D">
        <animateMotion xmlns="http://www.w3.org/2000/svg" dur="5s" begin="2.8" repeatCount="indefinite">
            <mpath xmlns:xlink="http://www.w3.org/1999/xlink" xlink:href="#path"/>
        </animateMotion>
        <animate
            attributeName="r"
            begin="2.8"
            dur="5s"
            repeatCount="indefinite"
            values="0; 15;"
        />
    </circle>
    <circle r="0" fill-rule="evenodd" clip-rule="evenodd" fill="#E73D6D">
        <animateMotion xmlns="http://www.w3.org/2000/svg" dur="5s" begin="3.5" repeatCount="indefinite">
            <mpath xmlns:xlink="http://www.w3.org/1999/xlink" xlink:href="#path"/>
        </animateMotion>
        <animate
            attributeName="r"
            begin="3.5"
            dur="5s"
            repeatCount="indefinite"
            values="0; 15;"
        />
    </circle>
    <circle r="0" fill-rule="evenodd" clip-rule="evenodd" fill="#E73D6D">
        <animateMotion xmlns="http://www.w3.org/2000/svg" dur="5s" begin="4.2" repeatCount="indefinite">
            <mpath xmlns:xlink="http://www.w3.org/1999/xlink" xlink:href="#path"/>
        </animateMotion>
        <animate
            attributeName="r"
            begin="4.2"
            dur="5s"
            repeatCount="indefinite"
            values="0; 15;"
        />
    </circle>
    <path fill-rule="evenodd" clip-rule="evenodd" d="M175.068 38.0029C175.484 37.8395 175.983 38.1664 176.149 38.6567C176.315 39.1471 176.149 39.7192 175.816 39.8826C175.401 40.0461 174.902 39.7192 174.736 39.2288C174.486 38.7385 174.653 38.1664 175.068 38.0029ZM173.322 32.7725C173.821 32.2004 174.902 32.2821 175.567 33.0176C176.315 33.6714 176.481 34.6522 175.9 35.2242C175.401 35.7963 174.32 35.7146 173.655 34.9791C172.907 34.3252 172.741 33.3445 173.322 32.7725ZM170.413 33.3445C169.748 33.2628 169.249 32.8542 169.332 32.3638C169.415 31.8735 169.914 31.5466 170.579 31.6283C171.244 31.71 171.743 32.1186 171.66 32.609C171.577 33.0176 170.995 33.3445 170.413 33.3445ZM177.313 42.8248C177.645 42.4979 178.061 42.4979 178.227 42.6613C178.477 42.9065 178.394 43.3151 178.144 43.5603C177.812 43.8872 177.396 43.8872 177.23 43.7237C176.98 43.5603 176.98 43.1517 177.313 42.8248ZM178.31 36.6953C178.809 36.5319 179.308 36.9405 179.474 37.5943C179.641 38.1664 179.391 38.8202 178.892 38.9836C178.394 39.1471 177.895 38.7385 177.728 38.0847C177.562 37.4308 177.812 36.8588 178.31 36.6953ZM157.693 12.913C159.107 14.5475 159.772 17.3262 158.691 21.7394C158.525 20.5953 157.777 16.7541 156.945 15.2013L157.693 12.913ZM154.036 11.115C150.627 7.60082 145.057 5.14904 136.744 7.5191C136.744 7.5191 141.981 4.00487 148.216 5.06731C151.043 5.55767 153.62 7.19219 155.532 9.48052L154.036 11.115ZM147.718 29.6669C151.292 29.1765 156.031 24.9267 156.031 24.9267C155.948 32.609 149.214 33.0176 147.718 29.6669ZM147.551 85.8127C147.219 85.7309 147.052 85.404 147.136 84.9954C147.219 84.5868 147.551 84.3416 147.801 84.3416C148.133 84.4233 148.299 84.7502 148.216 85.1589C148.216 85.5675 147.884 85.8944 147.551 85.8127ZM144.06 80.2553C143.644 80.7457 142.979 80.8274 142.646 80.5005C142.231 80.1736 142.314 79.5198 142.73 79.0294C143.145 78.5391 143.81 78.4573 144.143 78.7842C144.558 79.1111 144.475 79.7649 144.06 80.2553ZM145.14 83.6878C144.808 83.6061 144.642 83.1974 144.725 82.7888C144.808 82.3802 145.14 82.135 145.473 82.2167C145.805 82.2985 145.972 82.7071 145.889 83.1157C145.805 83.4426 145.473 83.6878 145.14 83.6878ZM141.898 76.4959C141.15 76.2507 140.817 75.3517 141.15 74.371C141.483 73.472 142.314 72.8182 143.062 73.0634C143.81 73.3086 144.143 74.2076 143.81 75.1883C143.395 76.169 142.563 76.7411 141.898 76.4959ZM141.898 69.6309C142.064 68.9771 142.563 68.5685 143.062 68.7319C143.561 68.8137 143.81 69.4675 143.644 70.0395C143.478 70.6934 142.979 71.102 142.48 70.9385C141.981 70.8568 141.732 70.2847 141.898 69.6309ZM134.416 24.5998C134.416 24.5998 139.072 29.1765 142.73 29.6669C141.15 33.0176 134.915 33.2628 134.416 24.5998ZM160.021 45.1131C160.936 45.1131 161.601 45.6852 161.601 46.339C161.601 46.9928 160.853 47.5649 160.021 47.5649C159.107 47.5649 158.442 46.9928 158.442 46.339C158.442 45.6852 159.19 45.1131 160.021 45.1131ZM162.016 51.3243C162.515 51.4877 162.848 52.1415 162.598 52.7953C162.432 53.4492 161.85 53.9395 161.268 53.7761C160.769 53.6126 160.437 52.9588 160.686 52.305C160.853 51.5695 161.434 51.1608 162.016 51.3243ZM163.18 47.6466C163.679 47.4014 164.344 47.6466 164.677 48.2187C165.009 48.7908 165.009 49.5263 164.51 49.7715C164.012 50.0167 163.346 49.7715 163.014 49.1994C162.598 48.6273 162.681 47.9735 163.18 47.6466ZM129.345 74.4528C129.096 74.6162 128.68 74.4528 128.431 74.1258C128.264 73.7989 128.264 73.3903 128.597 73.2269C128.846 73.0634 129.262 73.2269 129.511 73.5538C129.678 73.8807 129.595 74.2893 129.345 74.4528ZM127.599 66.607C127.433 66.3619 127.599 65.9532 127.932 65.7081C128.264 65.4629 128.68 65.5446 128.846 65.7898C129.013 66.035 128.846 66.4436 128.514 66.6888C128.181 66.8522 127.766 66.8522 127.599 66.607ZM127.101 70.8568C126.519 71.1837 125.77 70.8568 125.355 70.1213C124.939 69.3857 125.105 68.6502 125.604 68.3233C126.186 67.9964 126.934 68.3233 127.35 69.0588C127.849 69.7126 127.682 70.5299 127.101 70.8568ZM124.523 66.1984C124.025 66.1984 123.609 65.7081 123.609 65.0543C123.609 64.4005 124.025 63.9101 124.523 63.9101C125.022 63.9101 125.438 64.4005 125.438 65.0543C125.438 65.6263 125.022 66.1984 124.523 66.1984ZM127.267 59.9055C127.599 59.5786 128.015 59.5786 128.181 59.7421C128.431 59.9872 128.348 60.3959 128.098 60.641C127.766 60.9679 127.35 60.968 127.184 60.8045C126.851 60.6411 126.934 60.2324 127.267 59.9055ZM116.875 52.7953C116.709 53.3674 116.293 53.7761 115.794 53.6126C115.379 53.5309 115.129 52.9588 115.213 52.3867C115.379 51.8146 115.794 51.406 116.293 51.5695C116.709 51.6512 116.958 52.2233 116.875 52.7953ZM111.97 53.6126C111.056 53.8578 110.058 53.0405 109.726 51.8146C109.476 50.5887 109.975 49.4446 110.973 49.1994C111.887 48.9542 112.885 49.7715 113.217 50.9974C113.467 52.2233 112.885 53.3674 111.97 53.6126ZM110.308 45.44C110.557 44.6227 111.222 44.1324 111.804 44.2958C112.386 44.4593 112.719 45.1948 112.552 46.0121C112.303 46.8293 111.638 47.3197 111.056 47.1562C110.391 46.9928 110.058 46.2573 110.308 45.44ZM180.804 52.2233C181.885 52.7953 181.137 57.7806 177.23 57.4537C173.156 57.0451 175.235 53.8578 178.56 48.9542C186.79 36.8588 175.733 27.0516 166.672 29.9938C164.095 30.811 160.603 33.0994 158.192 35.306C169.665 16.9993 161.767 -0.081434 145.057 0.000292094C145.057 0.000292094 144.974 0.000292094 144.891 0.000292094C144.808 0.000292094 144.725 0.000292094 144.725 0.000292094C142.646 0.0820182 126.934 1.47136 126.519 18.7973C126.352 25.4988 129.511 29.6669 132.172 35.5511C135.414 42.6613 134.749 50.4253 124.523 49.1994C127.267 48.709 129.013 47.7283 130.093 46.5024C128.846 46.4207 127.35 45.5217 126.02 43.8055C124.191 41.4354 124.025 40.4547 122.029 39.3923C113.966 34.8973 105.735 42.8248 107.814 51.4877C110.058 60.9679 117.374 61.7852 114.714 67.0974C112.053 72.4096 103.408 68.4867 107.647 61.2949C104.073 64.237 105.07 69.0588 106.733 71.5106C109.227 75.1883 117.374 76.169 120.866 71.2654C118.538 65.8715 115.961 56.3913 125.854 54.3481C137.575 51.9781 134.084 52.3867 136.411 50.1801C134.915 56.1461 126.851 53.2857 123.526 57.372C119.785 62.0304 122.362 68.3233 122.445 68.6502C123.775 71.5106 126.269 74.6162 130.176 77.6401C131.34 79.0294 132.421 80.6639 132.089 82.7071C131.59 85.7309 126.685 85.8127 126.519 81.8081C126.103 83.4426 126.269 86.5482 129.844 87.202C133.419 87.9376 138.407 82.8705 137.076 77.8035C135.746 72.6548 135.164 72.1644 135.331 69.1406C135.663 63.4197 142.064 60.3141 144.06 60.2324C133.751 66.035 137.492 89 153.454 89C166.755 89 165.924 73.8807 158.026 75.0248C153.038 75.7604 153.121 79.1111 153.121 79.1111C153.121 79.1111 155.449 78.2939 157.278 78.866C160.187 79.7649 160.686 83.6878 157.444 85.3223C153.537 87.3655 147.136 83.6878 152.04 74.8614C152.456 74.1259 153.038 73.6355 153.62 73.0634C151.791 72.6548 149.131 71.3472 148.383 66.8522C147.468 61.1314 151.043 56.5547 148.798 56.3913C150.378 52.9588 155.283 52.2233 153.121 56.6365C152.373 58.1893 144.725 67.4243 154.368 72.2462C161.933 74.2893 173.572 66.1984 174.237 72.7365C173.738 75.4335 170.745 76.6594 169.332 76.0055C170.247 76.4959 173.322 77.7218 175.9 75.5969C181.386 70.8568 177.978 62.9294 169.332 64.3187C159.024 65.9532 158.109 61.6218 162.765 57.6172C166.589 54.2664 167.669 50.8339 167.004 47.9735C166.921 47.8918 166.838 47.8101 166.838 47.7283C165.757 44.1324 159.439 37.9212 149.962 46.2573C151.292 44.7862 154.534 41.7623 158.94 41.1085C161.767 40.6999 165.425 41.3537 167.503 43.5603C168.916 40.8633 170.745 41.9258 171.161 43.3968C171.577 45.1131 165.342 54.675 169.083 58.6796C172.907 62.6842 179.641 61.2131 181.802 58.5979C184.795 54.9202 182.384 52.7953 180.804 52.2233Z" fill="#E73D6D"/>
    <path id="path" d="M142.22 46.7774C185.421 61.2583 208.703 108.019 194.223 151.22C179.742 194.421 132.981 217.703 89.7801 203.223C46.5727 188.74 22.771 143.549 37.7774 98.7801C52.7838 54.0109 99.0125 32.2945 142.22 46.7774Z" stroke="none"/>
    
</svg>

<svg xmlns="http://www.w3.org/2000/svg" viewBox="0 0 233 250" fill="none"><circle r="0" fill-rule="evenodd" clip-rule="evenodd" fill="#E73D6D"><animateMotion xmlns="http://www.w3.org/2000/svg" dur="5s" begin="0" repeatCount="indefinite"><mpath xmlns:xlink="http://www.w3.org/1999/xlink" xlink:href="#path"/></animateMotion><animate attributeName="r" begin="0" dur="5s" repeatCount="indefinite" values="0; 15;"/></circle><circle r="0" fill-rule="evenodd" clip-rule="evenodd" fill="#E73D6D"><animateMotion xmlns="http://www.w3.org/2000/svg" dur="5s" begin=".7" repeatCount="indefinite"><mpath xmlns:xlink="http://www.w3.org/1999/xlink" xlink:href="#path"/></animateMotion><animate attributeName="r" begin=".7" dur="5s" repeatCount="indefinite" values="0; 15;"/></circle><circle r="0" fill-rule="evenodd" clip-rule="evenodd" fill="#E73D6D"><animateMotion xmlns="http://www.w3.org/2000/svg" dur="5s" begin="1.4" repeatCount="indefinite"><mpath xmlns:xlink="http://www.w3.org/1999/xlink" xlink:href="#path"/></animateMotion><animate attributeName="r" begin="1.4" dur="5s" repeatCount="indefinite" values="0; 15;"/></circle><circle r="0" fill-rule="evenodd" clip-rule="evenodd" fill="#E73D6D"><animateMotion xmlns="http://www.w3.org/2000/svg" dur="5s" begin="2.1" repeatCount="indefinite"><mpath xmlns:xlink="http://www.w3.org/1999/xlink" xlink:href="#path"/></animateMotion><animate attributeName="r" begin="2.1" dur="5s" repeatCount="indefinite" values="0; 15;"/></circle><circle r="0" fill-rule="evenodd" clip-rule="evenodd" fill="#E73D6D"><animateMotion xmlns="http://www.w3.org/2000/svg" dur="5s" begin="2.8" repeatCount="indefinite"><mpath xmlns:xlink="http://www.w3.org/1999/xlink" xlink:href="#path"/></animateMotion><animate attributeName="r" begin="2.8" dur="5s" repeatCount="indefinite" values="0; 15;"/></circle><circle r="0" fill-rule="evenodd" clip-rule="evenodd" fill="#E73D6D"><animateMotion xmlns="http://www.w3.org/2000/svg" dur="5s" begin="3.5" repeatCount="indefinite"><mpath xmlns:xlink="http://www.w3.org/1999/xlink" xlink:href="#path"/></animateMotion><animate attributeName="r" begin="3.5" dur="5s" repeatCount="indefinite" values="0; 15;"/></circle><circle r="0" fill-rule="evenodd" clip-rule="evenodd" fill="#E73D6D"><animateMotion xmlns="http://www.w3.org/2000/svg" dur="5s" begin="4.2" repeatCount="indefinite"><mpath xmlns:xlink="http://www.w3.org/1999/xlink" xlink:href="#path"/></animateMotion><animate attributeName="r" begin="4.2" dur="5s" repeatCount="indefinite" values="0; 15;"/></circle><path fill-rule="evenodd" clip-rule="evenodd" d="M175.068 38.003c.416-.163.915.163 1.081.654.166.49 0 1.062-.333 1.226-.415.163-.914-.164-1.08-.654-.25-.49-.083-1.063.332-1.226zm-1.746-5.23c.499-.573 1.58-.49 2.245.245.748.653.914 1.634.333 2.206-.499.572-1.58.49-2.245-.245-.748-.654-.914-1.635-.333-2.206zm-2.909.571c-.665-.081-1.164-.49-1.081-.98.083-.49.582-.817 1.247-.736.665.082 1.164.49 1.081.981-.083.409-.665.735-1.247.735zm6.9 9.48c.332-.326.748-.326.914-.163.25.245.167.654-.083.9-.332.326-.748.326-.914.163-.25-.164-.25-.572.083-.9zm.997-6.129c.499-.163.998.245 1.164.9.167.571-.083 1.225-.582 1.389-.498.163-.997-.245-1.164-.9-.166-.653.084-1.225.582-1.389zm-20.617-23.782c1.414 1.634 2.079 4.413.998 8.826-.166-1.144-.914-4.985-1.746-6.538l.748-2.288zm-3.657-1.798c-3.409-3.514-8.979-5.966-17.292-3.596 0 0 5.237-3.514 11.472-2.452 2.827.49 5.404 2.125 7.316 4.414l-1.496 1.634zm-6.318 18.552c3.574-.49 8.313-4.74 8.313-4.74-.083 7.682-6.817 8.09-8.313 4.74zm-.167 56.146c-.332-.082-.499-.409-.415-.818.083-.408.415-.653.665-.653.332.081.498.408.415.817 0 .408-.332.735-.665.654zm-3.491-5.558c-.416.49-1.081.572-1.414.246-.415-.327-.332-.981.084-1.472.415-.49 1.08-.572 1.413-.245.415.327.332.98-.083 1.471zm1.08 3.433c-.332-.082-.498-.49-.415-.9.083-.408.415-.653.748-.571.332.082.499.49.416.899a.798.798 0 01-.749.572zm-3.242-7.192c-.748-.245-1.081-1.144-.748-2.125.333-.899 1.164-1.553 1.912-1.308.748.246 1.081 1.145.748 2.125-.415.981-1.247 1.553-1.912 1.308zm0-6.865c.166-.654.665-1.063 1.164-.9.499.083.748.737.582 1.309-.166.653-.665 1.062-1.164.898-.499-.081-.748-.653-.582-1.307zM134.416 24.6s4.656 4.576 8.314 5.067c-1.58 3.35-7.815 3.596-8.314-5.067zm25.605 20.513c.915 0 1.58.572 1.58 1.226s-.748 1.226-1.58 1.226c-.914 0-1.579-.572-1.579-1.226s.748-1.226 1.579-1.226zm1.995 6.211c.499.164.832.818.582 1.471-.166.654-.748 1.145-1.33.981-.499-.163-.831-.817-.582-1.471.167-.736.748-1.144 1.33-.98zm1.164-3.677c.499-.246 1.164 0 1.497.572.332.572.332 1.307-.167 1.553-.498.245-1.164 0-1.496-.573-.416-.572-.333-1.225.166-1.552zm-33.835 26.806c-.249.163-.665 0-.914-.327-.167-.327-.167-.736.166-.9.249-.163.665 0 .914.328.167.327.084.735-.166.899zm-1.746-7.846c-.166-.245 0-.654.333-.899.332-.245.748-.163.914.082.167.245 0 .654-.332.899-.333.163-.748.163-.915-.082zm-.498 4.25c-.582.327-1.331 0-1.746-.736-.416-.735-.25-1.47.249-1.798.582-.327 1.33 0 1.746.736.499.654.332 1.47-.249 1.798zm-2.578-4.659c-.498 0-.914-.49-.914-1.144 0-.654.416-1.144.914-1.144.499 0 .915.49.915 1.144 0 .572-.416 1.144-.915 1.144zm2.744-6.292c.332-.327.748-.327.914-.164.25.245.167.654-.083.899-.332.327-.748.327-.914.163-.333-.163-.25-.572.083-.898zm-10.392-7.11c-.166.571-.582.98-1.081.817-.415-.082-.665-.654-.581-1.226.166-.572.581-.981 1.08-.818.416.082.665.654.582 1.226zm-4.905.817c-.914.245-1.912-.572-2.244-1.798-.25-1.226.249-2.37 1.247-2.616.914-.245 1.912.573 2.244 1.798.25 1.226-.332 2.37-1.247 2.616zm-1.662-8.173c.249-.817.914-1.308 1.496-1.144.582.163.915.899.748 1.716-.249.817-.914 1.308-1.496 1.144-.665-.163-.998-.899-.748-1.716zm70.496 6.783c1.081.572.333 5.558-3.574 5.23-4.074-.408-1.995-3.595 1.33-8.499 8.23-12.095-2.827-21.902-11.888-18.96-2.577.817-6.069 3.105-8.48 5.312C169.665 16.999 161.767-.081 145.057 0h-.332c-2.079.082-17.791 1.471-18.206 18.797-.167 6.702 2.992 10.87 5.653 16.754 3.242 7.11 2.577 14.874-7.649 13.648 2.744-.49 4.49-1.47 5.57-2.697-1.247-.081-2.743-.98-4.073-2.697-1.829-2.37-1.995-3.35-3.991-4.413-8.063-4.495-16.294 3.433-14.215 12.096 2.244 9.48 9.56 10.297 6.9 15.61-2.661 5.312-11.306 1.389-7.067-5.803-3.574 2.942-2.577 7.764-.914 10.216 2.494 3.677 10.641 4.658 14.133-.246-2.328-5.394-4.905-14.874 4.988-16.917 11.721-2.37 8.23-1.961 10.557-4.168-1.496 5.966-9.56 3.106-12.885 7.192-3.741 4.658-1.164 10.951-1.081 11.278 1.33 2.86 3.824 5.966 7.731 8.99 1.164 1.39 2.245 3.024 1.913 5.067-.499 3.024-5.404 3.106-5.57-.899-.416 1.635-.25 4.74 3.325 5.394 3.575.736 8.563-4.331 7.232-9.398-1.33-5.15-1.912-5.64-1.745-8.663.332-5.721 6.733-8.827 8.729-8.909C133.751 66.035 137.492 89 153.454 89c13.301 0 12.47-15.12 4.572-13.975-4.988.735-4.905 4.086-4.905 4.086s2.328-.817 4.157-.245c2.909.899 3.408 4.822.166 6.456-3.907 2.043-10.308-1.634-5.404-10.46.416-.736.998-1.227 1.58-1.799-1.829-.408-4.489-1.716-5.237-6.21-.915-5.722 2.66-10.298.415-10.462 1.58-3.432 6.485-4.168 4.323.245-.748 1.553-8.396 10.788 1.247 15.61 7.565 2.043 19.204-6.048 19.869.49-.499 2.697-3.492 3.923-4.905 3.27.915.49 3.99 1.716 6.568-.41 5.486-4.74 2.078-12.667-6.568-11.277-10.308 1.634-11.223-2.697-6.567-6.702 3.824-3.35 4.904-6.783 4.239-9.643-.083-.082-.166-.164-.166-.246-1.081-3.596-7.399-9.807-16.876-1.47 1.33-1.472 4.572-4.496 8.978-5.15 2.827-.408 6.485.246 8.563 2.452 1.413-2.697 3.242-1.634 3.658-.163.416 1.716-5.819 11.278-2.078 15.283 3.824 4.004 10.558 2.533 12.719-.082 2.993-3.678.582-5.803-.998-6.375z" fill="#E73D6D"/><path id="path" d="M142.22 46.777c43.201 14.481 66.483 61.242 52.003 104.443-14.481 43.201-61.242 66.483-104.443 52.003C46.573 188.74 22.771 143.549 37.777 98.78 52.784 54.01 99.013 32.294 142.22 46.777z" stroke="none"/></svg>
